www/images/hand-write.svg

<svg fill="none" height="55" viewBox="0 0 55 55" width="55" xmlns="http://www.w3.org/2000/svg" xmlns:xlink="http://www.w3.org/1999/xlink"><clipPath id="a"><path d="m0 0h55v55h-55z" transform="matrix(-1 0 0 1 55 0)"/></clipPath><g clip-path="url(#a)"><path d="m1.56422 42.1226 1.64022-5.3067c.0498-.1596.12998-.3069.23547-.4331 0 0 .28916-.3408.79837-.9464-.05201-.133-.08382-.2738-.09125-.416-.07812-2.0424 1.24954-6.2361 2.86181-11.1007.44662-1.3476.83283-2.5101 1.00406-3.1513.46168-1.6877 1.34386-3.2222 2.5601-4.4521.0675-.0631.1422-.118.2222-.1616 2.0643-1.1807 4.2542-2.2019 7.8855-3.8925l2.1478-1.0027-.0023.0006c1.4416-.6971 3.027-1.0424 4.6305-1.0058 2.4567-2.91594 4.1452-4.92122 4.2947-5.09669 1.1623-1.36997 3.2061-1.51141 4.5686-.31471 1.3931 1.22908 1.6337 3.33525.5511 4.83105-.1152.13623-1.1621 1.38005-2.7737 3.29195l21.5087 12.9381c.282.1717.4872.4467.5712.7686.0839.3219.037.6628-.1259.948l-7.813 13.5954.0006.0024c-.3422.5923-1.0901.7849-1.6734.434l-8.1836-4.9226c-4.0718 1.1583-7.7728.6602-11.1701-.3417-.3904.1043-.7778.2105-1.1457.3065-4.0976 1.069-6.8484 1.5313-8.9962.2412-.9702-.5836-1.6749-.9736-2.1369-1.2196l-4.36952 5.1795c-.10718.1291-.23858.2316-.38496.3052l-4.89755 2.4355c-.43974.2183-.96995.1469-1.34267-.1831-.37505-.3294-.52186-.8549-.37418-1.3307zm20.30528-28.589-2.1502 1.0033c-3.4901 1.626-5.627 2.6233-7.5694 3.7215l.0006.0024c-.8322.9022-1.4384 1.9981-1.7711 3.1947-.1906.7095-.56845 1.847-1.04494 3.2884-.68189 2.0561-1.65821 5.0105-2.24282 7.3069 4.11906-4.8891 10.90446-12.9414 15.98006-18.967-.4111.1199-.8136.2726-1.2022.4498zm10.8594-6.80683c-.3371-.2786-.822-.24308-1.1122.07528-.3416.4051-8.8327 10.48215-16.0762 19.08075.8962-.1833 1.8073-.2997 2.72-.3532l2.9101-3.4514c5.9629-7.0765 11.5613-13.72172 11.8364-14.04913.1894-.4488.0778-.97051-.2781-1.3023zm-9.6918 16.99313-1.4416 1.7109c1.6674.0452 3.3332-.0961 4.9653-.4233l-3.0572-1.839c-.1551.1821-.312.367-.4665.5514zm13.1209 10.4625c.3312-.1041.6884-.0608.9897.1185l7.5862 4.5653 6.5807-11.4517-20.8319-12.5309c-1.5528 1.8435-3.4039 4.0403-5.363 6.3639l4.4026 2.6483-.0024.0006c.302.1816.514.4827.585.8307.0733.3474-.003.7086-.2082.9921-1.5288 2.1254-4.8976 2.1701-8.4616 2.2151-4.1575.0532-7.1498.2525-8.2099 2.0913 2.4399.1168 4.9957 1.1234 7.6675 2.1757 4.4894 1.7687 9.5805 3.7751 15.2653 1.9811zm-19.8623.6013c.9849.5925 2.4874.5266 4.6028.091-.2916-.1136-.5808-.2277-.8672-.34-1.5397-.6449-3.1123-1.1978-4.7135-1.6521l-.7544.897c.454.2532 1.0259.5792 1.7323 1.0041zm-9.43632 4.2768 5.49102-6.516c-.1845.0127-.3708.0183-.5487.047l.0006.0024c-.5438.0939-1.0856-.2021-1.3114-.717-2.55648 3.0356-4.46971 5.3067-5.01911 5.9581l-.70066 2.2684z" fill="#fff"/></g></svg>

<svg width="55" height="55" viewBox="0 0 55 55" fill="none" xmlns="http://www.w3.org/2000/svg">
<g clip-path="url(#clip0)">
<path d="M1.56422 42.1226L3.20444 36.8159C3.25424 36.6563 3.33442 36.509 3.43991 36.3828C3.43991 36.3828 3.72907 36.042 4.23828 35.4364C4.18627 35.3034 4.15446 35.1626 4.14703 35.0204C4.06891 32.978 5.39657 28.7843 7.00884 23.9197C7.45546 22.5721 7.84167 21.4096 8.0129 20.7684C8.47458 19.0807 9.35676 17.5462 10.573 16.3163C10.6405 16.2532 10.7152 16.1983 10.7952 16.1547C12.8595 14.974 15.0494 13.9528 18.6807 12.2622L20.8285 11.2595L20.8262 11.2601C22.2678 10.563 23.8532 10.2177 25.4567 10.2543C27.9134 7.33836 29.6019 5.33308 29.7514 5.15761C30.9137 3.78764 32.9575 3.6462 34.32 4.8429C35.7131 6.07198 35.9537 8.17815 34.8711 9.67395C34.7559 9.81018 33.709 11.054 32.0974 12.9659L53.6061 25.904C53.8881 26.0757 54.0933 26.3507 54.1773 26.6726C54.2612 26.9945 54.2143 27.3354 54.0514 27.6206L46.2384 41.216L46.239 41.2184C45.8968 41.8107 45.1489 42.0033 44.5656 41.6524L36.382 36.7298C32.3102 37.8881 28.6092 37.39 25.2119 36.3881C24.8215 36.4924 24.4341 36.5986 24.0662 36.6946C19.9686 37.7636 17.2178 38.2259 15.07 36.9358C14.0998 36.3522 13.3951 35.9622 12.9331 35.7162L8.56358 40.8957C8.4564 41.0248 8.325 41.1273 8.17862 41.2009L3.28107 43.6364C2.84133 43.8547 2.31112 43.7833 1.9384 43.4533C1.56335 43.1239 1.41654 42.5984 1.56422 42.1226ZM21.8695 13.5336L19.7193 14.5369C16.2292 16.1629 14.0923 17.1602 12.1499 18.2584L12.1505 18.2608C11.3183 19.163 10.7121 20.2589 10.3794 21.4555C10.1888 22.165 9.81095 23.3025 9.33446 24.7439C8.65257 26.8 7.67625 29.7544 7.09164 32.0508C11.2107 27.1617 17.9961 19.1094 23.0717 13.0838C22.6606 13.2037 22.2581 13.3564 21.8695 13.5336ZM32.7289 6.72677C32.3918 6.44817 31.9069 6.48369 31.6167 6.80205C31.2751 7.20715 22.784 17.2842 15.5405 25.8828C16.4367 25.6995 17.3478 25.5831 18.2605 25.5296L21.1706 22.0782C27.1335 15.0017 32.7319 8.35648 33.007 8.02907C33.1964 7.58027 33.0848 7.05856 32.7289 6.72677ZM23.0371 23.7199L21.5955 25.4308C23.2629 25.476 24.9287 25.3347 26.5608 25.0075L23.5036 23.1685C23.3485 23.3506 23.1916 23.5355 23.0371 23.7199ZM36.158 34.1824C36.4892 34.0783 36.8464 34.1216 37.1477 34.3009L44.7339 38.8662L51.3146 27.4145L30.4827 14.8836C28.9299 16.7271 27.0788 18.9239 25.1197 21.2475L29.5223 23.8958L29.5199 23.8964C29.8219 24.078 30.0339 24.3791 30.1049 24.7271C30.1782 25.0745 30.1019 25.4357 29.8967 25.7192C28.3679 27.8446 24.9991 27.8893 21.4351 27.9343C17.2776 27.9875 14.2853 28.1868 13.2252 30.0256C15.6651 30.1424 18.2209 31.149 20.8927 32.2013C25.3821 33.97 30.4732 35.9764 36.158 34.1824ZM16.2957 34.7837C17.2806 35.3762 18.7831 35.3103 20.8985 34.8747C20.6069 34.7611 20.3177 34.647 20.0313 34.5347C18.4916 33.8898 16.919 33.3369 15.3178 32.8826L14.5634 33.7796C15.0174 34.0328 15.5893 34.3588 16.2957 34.7837ZM6.85938 39.0605L12.3504 32.5445C12.1659 32.5572 11.9796 32.5628 11.8017 32.5915L11.8023 32.5939C11.2585 32.6878 10.7167 32.3918 10.4909 31.8769C7.93442 34.9125 6.02119 37.1836 5.47179 37.835L4.77113 40.1034L6.85938 39.0605Z" fill="white"/>
</g>
<defs>
<clipPath id="clip0">
<rect width="55" height="55" fill="white" transform="matrix(-1 0 0 1 55 0)"/>
</clipPath>
</defs>
</svg>
